Newaita-dark/apps/22/gnome-2048.svg

<svg height="22" viewBox="0 0 22 22" width="22" xmlns="http://www.w3.org/2000/svg" xmlns:xlink="http://www.w3.org/1999/xlink"><linearGradient id="a" gradientUnits="userSpaceOnUse" x1="10.9151136" x2="10.9151136" y1="18.88591915" y2="19.79551242919"><stop offset="0" stop-opacity=".27451"/><stop offset="1" stop-opacity="0"/></linearGradient><linearGradient id="b"><stop offset="0" stop-opacity=".313726"/><stop offset=".222222" stop-opacity=".27451"/><stop offset="1" stop-opacity="0"/></linearGradient><radialGradient id="c" cx="450.908936" cy="189.579361" gradientTransform="matrix(.00000012 -.0537161 -.0966889 -.00000007 35.385024 43.334373)" gradientUnits="userSpaceOnUse" r="21.166656" xlink:href="#b"/><radialGradient id="d" cx="450.908936" cy="189.579361" gradientTransform="matrix(-.00000012 .0537161 .0966889 .00000007 -13.554817 -5.56256)" gradientUnits="userSpaceOnUse" r="21.166656" xlink:href="#b"/><radialGradient id="e" cx="450.908936" cy="189.579361" gradientTransform="matrix(-.00000012 -.0537161 .0966889 -.00000007 -13.554817 43.334373)" gradientUnits="userSpaceOnUse" r="21.166656" xlink:href="#b"/><radialGradient id="f" cx="450.908936" cy="189.579361" gradientTransform="matrix(.00000012 .0537161 -.0966889 .00000007 35.385023 -5.56256)" gradientUnits="userSpaceOnUse" r="21.166656" xlink:href="#b"/><linearGradient id="g"><stop offset="0" stop-color="#e0e0e0"/><stop offset="1" stop-color="#eee"/></linearGradient><linearGradient id="h" gradientUnits="userSpaceOnUse" x1="5.4575583" x2="5.4575583" xlink:href="#g" y1="7.90342199635" y2="2.44586395419"/><linearGradient id="i" gradientUnits="userSpaceOnUse" x1="16.3726749" x2="16.3726749" y1="7.90342199635" y2="2.44586395419"><stop offset="0" stop-color="#9ccc65"/><stop offset="1" stop-color="#aed581"/></linearGradient><linearGradient id="j" gradientUnits="userSpaceOnUse" x1="5.4575583" x2="5.4575583" xlink:href="#g" y1="18.81853885419" y2="13.36098021041"/><linearGradient id="k" gradientUnits="userSpaceOnUse" x1="5.4575583" x2="5.4575583" xlink:href="#g" y1="13.36098021041" y2="7.90342199635"/><linearGradient id="l" gradientUnits="userSpaceOnUse" x1="16.3726749" x2="16.3726749" y1="18.81853885419" y2="13.36098021041"><stop offset="0" stop-color="#ff7043"/><stop offset="1" stop-color="#ff8a65"/></linearGradient><linearGradient id="m" gradientUnits="userSpaceOnUse" x1="16.3726749" x2="16.3726749" y1="13.36098021041" y2="7.90342199635"><stop offset="0" stop-color="#29b6f6"/><stop offset="1" stop-color="#4fc3f7"/></linearGradient><linearGradient id="n" gradientUnits="userSpaceOnUse" x1="10.9151166" x2="10.9151166" y1="13.36098021041" y2="7.90342199635"><stop offset="0" stop-color="#ffa726"/><stop offset="1" stop-color="#ffb74d"/></linearGradient><linearGradient id="o" gradientUnits="userSpaceOnUse" x1="10.9151166" x2="10.9151166" y1="18.81853885419" y2="13.36098021041"><stop offset="0" stop-color="#ef5350"/><stop offset="1" stop-color="#e57373"/></linearGradient><linearGradient id="p" gradientUnits="userSpaceOnUse" x1="10.9151166" x2="10.9151166" xlink:href="#g" y1="7.90342199635" y2="2.44586395419"/><path d="m4.546875 18.851562h12.734375v.976563h-12.734375zm0 0" fill="url(#a)"/><path d="m17.28125 18.886719h1.820312v-.910157h-1.820312zm0 0" fill="url(#c)"/><path d="m4.546875 18.886719h-1.816406v.910156h1.816406zm0 0" fill="url(#d)"/><path d="m4.546875 18.886719h-1.816406v-.910157h1.816406zm0 0" fill="url(#e)"/><path d="m17.28125 18.886719h1.820312v.910156h-1.820312zm0 0" fill="url(#f)"/><path d="m3.636719 2.445312c-.503907 0-.90625.40625-.90625.910157v4.546875h5.457031v-5.457032zm0 0" fill="url(#h)"/><path d="m13.644531 2.445312v5.457032h5.457031v-4.546875c0-.503907-.40625-.910157-.910156-.910157zm0 0" fill="url(#i)"/><path d="m2.730469 13.359375v4.550781c0 .503906.402343.910156.90625.910156h4.550781v-5.460937zm0 0" fill="url(#j)"/><path d="m2.730469 7.902344h5.457031v5.457031h-5.457031zm0 0" fill="url(#k)"/><path d="m13.644531 13.359375v5.460937h4.546875c.503906 0 .910156-.40625.910156-.910156v-4.550781zm0 0" fill="url(#l)"/><path d="m13.644531 7.902344h5.457031v5.457031h-5.457031zm0 0" fill="url(#m)"/><path d="m8.1875 7.902344h5.457031v5.457031h-5.457031zm0 0" fill="url(#n)"/><path d="m8.1875 13.359375h5.457031v5.460937h-5.457031zm0 0" fill="url(#o)"/><path d="m8.1875 2.445312h5.457031v5.457032h-5.457031zm0 0" fill="url(#p)"/><path d="m3.636719 2.445312c-.503907 0-.90625.40625-.90625.910157v.125c0-.503907.402343-.910157.90625-.910157h14.554687c.503906 0 .910156.40625.910156.910157v-.125c0-.503907-.40625-.910157-.910156-.910157zm0 0" fill="#fff" fill-opacity=".784314"/><path d="m3.636719 18.828125c-.503907 0-.90625-.40625-.90625-.910156v-.121094c0 .503906.402343.90625.90625.90625h14.554687c.503906 0 .910156-.402344.910156-.90625v.121094c0 .503906-.40625.910156-.910156.910156zm0 0" fill-opacity=".235294"/><g fill="#fff"><path d="m2.730469 7.902344v.226562h5.457031v-.226562zm0 0"/><path d="m3.636719 2.445312c-.503907 0-.90625.40625-.90625.910157v.226562c0-.503906.402343-.910156.90625-.910156h4.550781v-.226563zm0 0"/><path d="m13.644531 2.445312v.226563h4.546875c.503906 0 .910156.40625.910156.910156v-.226562c0-.503907-.40625-.910157-.910156-.910157zm0 0" fill-opacity=".588235"/><path d="m2.730469 13.359375v.230469h5.457031v-.230469zm0 0" fill-opacity=".980645"/><path d="m13.644531 13.359375v.230469h5.457031v-.230469zm0 0" fill-opacity=".392157"/><path d="m13.644531 7.902344v.226562h5.457031v-.226562zm0 0" fill-opacity=".392157"/><path d="m8.1875 7.902344v.226562h5.457031v-.226562zm0 0" fill-opacity=".784314"/><path d="m8.1875 13.359375v.230469h5.457031v-.230469zm0 0" fill-opacity=".392157"/><path d="m8.1875 2.445312v.226563h5.457031v-.226563zm0 0"/></g><path d="m2.730469 13.132812v.226563h5.457031v-.226563zm0 0" fill-opacity=".235294"/><path d="m2.730469 7.675781v.226563h5.457031v-.226563zm0 0" fill-opacity=".235294"/><path d="m13.644531 7.675781v.226563h5.457031v-.226563zm0 0" fill-opacity=".235294"/><path d="m2.730469 17.679688v.230468c0 .503906.402343.910156.90625.910156h4.550781v-.230468h-4.550781c-.503907 0-.90625-.40625-.90625-.910156zm0 0" fill-opacity=".235294"/><path d="m19.101562 17.679688c0 .503906-.40625.910156-.910156.910156h-4.546875v.230468h4.546875c.503906 0 .910156-.40625.910156-.910156zm0 0" fill-opacity=".235294"/><path d="m13.644531 13.132812v.226563h5.457031v-.226563zm0 0" fill-opacity=".235294"/><path d="m8.1875 13.132812v.226563h5.457031v-.226563zm0 0" fill-opacity=".235294"/><path d="m8.1875 18.589844v.230468h5.457031v-.230468zm0 0" fill-opacity=".235294"/><path d="m8.1875 7.675781v.226563h5.457031v-.226563zm0 0" fill-opacity=".235294"/><path d="m3.636719 2.382812c-.535157 0-.972657.433594-.972657.972657v14.554687c0 .539063.4375.972656.972657.972656h14.554687c.539063 0 .972656-.433593.972656-.972656v-14.554687c0-.539063-.433593-.972657-.972656-.972657zm4.613281.128907h5.328125v5.328125h-5.328125zm-4.613281 0h4.484375v5.328125h-5.328125v-4.484375c0-.46875.375-.84375.84375-.84375zm10.070312 0h4.484375c.46875 0 .84375.375.84375.84375v4.484375h-5.328125zm-5.457031 5.457031h5.328125v5.328125h-5.328125zm-5.457031 0h5.328125v5.328125h-5.328125zm10.914062 0h5.328125v5.328125h-5.328125zm-5.457031 5.457031h5.328125v5.328125h-5.328125zm5.457031 0h5.328125v4.484375c0 .46875-.375.84375-.84375.84375h-4.484375zm-10.914062 0h5.328125v5.328125h-4.484375c-.46875 0-.84375-.375-.84375-.84375zm0 0" fill="#212121"/></svg>

<?xml version="1.0" encoding="UTF-8"?>
<svg xmlns="http://www.w3.org/2000/svg" xmlns:xlink="http://www.w3.org/1999/xlink" width="22px" height="22px" viewBox="0 0 22 22" version="1.1">
<defs>
<linearGradient id="linear0" gradientUnits="userSpaceOnUse" x1="254" y1="233.5" x2="254" y2="254.666672" gradientTransform="matrix(0.0429729,0,0,0.0429729,-0.00000262285,8.851747)">
<stop offset="0" style="stop-color:rgb(0%,0%,0%);stop-opacity:0.27451;"/>
<stop offset="1" style="stop-color:rgb(0%,0%,0%);stop-opacity:0;"/>
</linearGradient>
<radialGradient id="radial0" gradientUnits="userSpaceOnUse" cx="450.908936" cy="189.579361" fx="450.908936" fy="189.579361" r="21.166656" gradientTransform="matrix(0.000000119742,-0.0537161,-0.0966889,-0.0000000698078,35.385024,43.334373)">
<stop offset="0" style="stop-color:rgb(0%,0%,0%);stop-opacity:0.313726;"/>
<stop offset="0.222222" style="stop-color:rgb(0%,0%,0%);stop-opacity:0.27451;"/>
<stop offset="1" style="stop-color:rgb(0%,0%,0%);stop-opacity:0;"/>
</radialGradient>
<radialGradient id="radial1" gradientUnits="userSpaceOnUse" cx="450.908936" cy="189.579361" fx="450.908936" fy="189.579361" r="21.166656" gradientTransform="matrix(-0.000000119742,0.0537161,0.0966889,0.0000000698078,-13.554817,-5.56256)">
<stop offset="0" style="stop-color:rgb(0%,0%,0%);stop-opacity:0.313726;"/>
<stop offset="0.222222" style="stop-color:rgb(0%,0%,0%);stop-opacity:0.27451;"/>
<stop offset="1" style="stop-color:rgb(0%,0%,0%);stop-opacity:0;"/>
</radialGradient>
<radialGradient id="radial2" gradientUnits="userSpaceOnUse" cx="450.908936" cy="189.579361" fx="450.908936" fy="189.579361" r="21.166656" gradientTransform="matrix(-0.000000119742,-0.0537161,0.0966889,-0.0000000698078,-13.554817,43.334373)">
<stop offset="0" style="stop-color:rgb(0%,0%,0%);stop-opacity:0.313726;"/>
<stop offset="0.222222" style="stop-color:rgb(0%,0%,0%);stop-opacity:0.27451;"/>
<stop offset="1" style="stop-color:rgb(0%,0%,0%);stop-opacity:0;"/>
</radialGradient>
<radialGradient id="radial3" gradientUnits="userSpaceOnUse" cx="450.908936" cy="189.579361" fx="450.908936" fy="189.579361" r="21.166656" gradientTransform="matrix(0.000000119742,0.0537161,-0.0966889,0.0000000698078,35.385023,-5.56256)">
<stop offset="0" style="stop-color:rgb(0%,0%,0%);stop-opacity:0.313726;"/>
<stop offset="0.222222" style="stop-color:rgb(0%,0%,0%);stop-opacity:0.27451;"/>
<stop offset="1" style="stop-color:rgb(0%,0%,0%);stop-opacity:0;"/>
</radialGradient>
<linearGradient id="linear1" gradientUnits="userSpaceOnUse" x1="127" y1="-31.083334" x2="127" y2="-158.083328" gradientTransform="matrix(0.0429729,0,0,0.0429729,0,9.239163)">
<stop offset="0" style="stop-color:rgb(87.843138%,87.843138%,87.843138%);stop-opacity:1;"/>
<stop offset="1" style="stop-color:rgb(93.333334%,93.333334%,93.333334%);stop-opacity:1;"/>
</linearGradient>
<linearGradient id="linear2" gradientUnits="userSpaceOnUse" x1="381" y1="-31.083334" x2="381" y2="-158.083328" gradientTransform="matrix(0.0429729,0,0,0.0429729,0,9.239163)">
<stop offset="0" style="stop-color:rgb(61.176473%,80.000001%,39.607844%);stop-opacity:1;"/>
<stop offset="1" style="stop-color:rgb(68.235296%,83.529413%,50.588238%);stop-opacity:1;"/>
</linearGradient>
<linearGradient id="linear3" gradientUnits="userSpaceOnUse" x1="127" y1="222.916672" x2="127" y2="95.916664" gradientTransform="matrix(0.0429729,0,0,0.0429729,0,9.239163)">
<stop offset="0" style="stop-color:rgb(87.843138%,87.843138%,87.843138%);stop-opacity:1;"/>
<stop offset="1" style="stop-color:rgb(93.333334%,93.333334%,93.333334%);stop-opacity:1;"/>
</linearGradient>
<linearGradient id="linear4" gradientUnits="userSpaceOnUse" x1="127" y1="95.916664" x2="127" y2="-31.083334" gradientTransform="matrix(0.0429729,0,0,0.0429729,0,9.239163)">
<stop offset="0" style="stop-color:rgb(87.843138%,87.843138%,87.843138%);stop-opacity:1;"/>
<stop offset="1" style="stop-color:rgb(93.333334%,93.333334%,93.333334%);stop-opacity:1;"/>
</linearGradient>
<linearGradient id="linear5" gradientUnits="userSpaceOnUse" x1="381" y1="222.916672" x2="381" y2="95.916664" gradientTransform="matrix(0.0429729,0,0,0.0429729,0,9.239163)">
<stop offset="0" style="stop-color:rgb(100%,43.921569%,26.274511%);stop-opacity:1;"/>
<stop offset="1" style="stop-color:rgb(100%,54.11765%,39.607844%);stop-opacity:1;"/>
</linearGradient>
<linearGradient id="linear6" gradientUnits="userSpaceOnUse" x1="381" y1="95.916664" x2="381" y2="-31.083334" gradientTransform="matrix(0.0429729,0,0,0.0429729,0,9.239163)">
<stop offset="0" style="stop-color:rgb(16.078432%,71.372551%,96.470588%);stop-opacity:1;"/>
<stop offset="1" style="stop-color:rgb(30.980393%,76.47059%,96.862745%);stop-opacity:1;"/>
</linearGradient>
<linearGradient id="linear7" gradientUnits="userSpaceOnUse" x1="254" y1="95.916664" x2="254" y2="-31.083334" gradientTransform="matrix(0.0429729,0,0,0.0429729,0,9.239163)">
<stop offset="0" style="stop-color:rgb(100%,65.490198%,14.901961%);stop-opacity:1;"/>
<stop offset="1" style="stop-color:rgb(100%,71.764708%,30.19608%);stop-opacity:1;"/>
</linearGradient>
<linearGradient id="linear8" gradientUnits="userSpaceOnUse" x1="254" y1="222.916672" x2="254" y2="95.916664" gradientTransform="matrix(0.0429729,0,0,0.0429729,0,9.239163)">
<stop offset="0" style="stop-color:rgb(93.725491%,32.549021%,31.37255%);stop-opacity:1;"/>
<stop offset="1" style="stop-color:rgb(89.803922%,45.09804%,45.09804%);stop-opacity:1;"/>
</linearGradient>
<linearGradient id="linear9" gradientUnits="userSpaceOnUse" x1="254" y1="-31.083334" x2="254" y2="-158.083328" gradientTransform="matrix(0.0429729,0,0,0.0429729,0,9.239163)">
<stop offset="0" style="stop-color:rgb(87.843138%,87.843138%,87.843138%);stop-opacity:1;"/>
<stop offset="1" style="stop-color:rgb(93.333334%,93.333334%,93.333334%);stop-opacity:1;"/>
</linearGradient>
</defs>
<g id="surface1">
<path style=" stroke:none;fill-rule:nonzero;fill:url(#linear0);" d="M 4.546875 18.851562 L 17.28125 18.851562 L 17.28125 19.828125 L 4.546875 19.828125 Z M 4.546875 18.851562 "/>
<path style=" stroke:none;fill-rule:nonzero;fill:url(#radial0);" d="M 17.28125 18.886719 L 19.101562 18.886719 L 19.101562 17.976562 L 17.28125 17.976562 Z M 17.28125 18.886719 "/>
<path style=" stroke:none;fill-rule:nonzero;fill:url(#radial1);" d="M 4.546875 18.886719 L 2.730469 18.886719 L 2.730469 19.796875 L 4.546875 19.796875 Z M 4.546875 18.886719 "/>
<path style=" stroke:none;fill-rule:nonzero;fill:url(#radial2);" d="M 4.546875 18.886719 L 2.730469 18.886719 L 2.730469 17.976562 L 4.546875 17.976562 Z M 4.546875 18.886719 "/>
<path style=" stroke:none;fill-rule:nonzero;fill:url(#radial3);" d="M 17.28125 18.886719 L 19.101562 18.886719 L 19.101562 19.796875 L 17.28125 19.796875 Z M 17.28125 18.886719 "/>
<path style=" stroke:none;fill-rule:nonzero;fill:url(#linear1);" d="M 3.636719 2.445312 C 3.132812 2.445312 2.730469 2.851562 2.730469 3.355469 L 2.730469 7.902344 L 8.1875 7.902344 L 8.1875 2.445312 Z M 3.636719 2.445312 "/>
<path style=" stroke:none;fill-rule:nonzero;fill:url(#linear2);" d="M 13.644531 2.445312 L 13.644531 7.902344 L 19.101562 7.902344 L 19.101562 3.355469 C 19.101562 2.851562 18.695312 2.445312 18.191406 2.445312 Z M 13.644531 2.445312 "/>
<path style=" stroke:none;fill-rule:nonzero;fill:url(#linear3);" d="M 2.730469 13.359375 L 2.730469 17.910156 C 2.730469 18.414062 3.132812 18.820312 3.636719 18.820312 L 8.1875 18.820312 L 8.1875 13.359375 Z M 2.730469 13.359375 "/>
<path style=" stroke:none;fill-rule:nonzero;fill:url(#linear4);" d="M 2.730469 7.902344 L 8.1875 7.902344 L 8.1875 13.359375 L 2.730469 13.359375 Z M 2.730469 7.902344 "/>
<path style=" stroke:none;fill-rule:nonzero;fill:url(#linear5);" d="M 13.644531 13.359375 L 13.644531 18.820312 L 18.191406 18.820312 C 18.695312 18.820312 19.101562 18.414062 19.101562 17.910156 L 19.101562 13.359375 Z M 13.644531 13.359375 "/>
<path style=" stroke:none;fill-rule:nonzero;fill:url(#linear6);" d="M 13.644531 7.902344 L 19.101562 7.902344 L 19.101562 13.359375 L 13.644531 13.359375 Z M 13.644531 7.902344 "/>
<path style=" stroke:none;fill-rule:nonzero;fill:url(#linear7);" d="M 8.1875 7.902344 L 13.644531 7.902344 L 13.644531 13.359375 L 8.1875 13.359375 Z M 8.1875 7.902344 "/>
<path style=" stroke:none;fill-rule:nonzero;fill:url(#linear8);" d="M 8.1875 13.359375 L 13.644531 13.359375 L 13.644531 18.820312 L 8.1875 18.820312 Z M 8.1875 13.359375 "/>
<path style=" stroke:none;fill-rule:nonzero;fill:url(#linear9);" d="M 8.1875 2.445312 L 13.644531 2.445312 L 13.644531 7.902344 L 8.1875 7.902344 Z M 8.1875 2.445312 "/>
<path style=" stroke:none;fill-rule:nonzero;fill:rgb(100%,100%,100%);fill-opacity:0.784314;" d="M 3.636719 2.445312 C 3.132812 2.445312 2.730469 2.851562 2.730469 3.355469 L 2.730469 3.480469 C 2.730469 2.976562 3.132812 2.570312 3.636719 2.570312 L 18.191406 2.570312 C 18.695312 2.570312 19.101562 2.976562 19.101562 3.480469 L 19.101562 3.355469 C 19.101562 2.851562 18.695312 2.445312 18.191406 2.445312 Z M 3.636719 2.445312 "/>
<path style=" stroke:none;fill-rule:nonzero;fill:rgb(0%,0%,0%);fill-opacity:0.235294;" d="M 3.636719 18.828125 C 3.132812 18.828125 2.730469 18.421875 2.730469 17.917969 L 2.730469 17.796875 C 2.730469 18.300781 3.132812 18.703125 3.636719 18.703125 L 18.191406 18.703125 C 18.695312 18.703125 19.101562 18.300781 19.101562 17.796875 L 19.101562 17.917969 C 19.101562 18.421875 18.695312 18.828125 18.191406 18.828125 Z M 3.636719 18.828125 "/>
<path style=" stroke:none;fill-rule:nonzero;fill:rgb(100%,100%,100%);fill-opacity:1;" d="M 2.730469 7.902344 L 2.730469 8.128906 L 8.1875 8.128906 L 8.1875 7.902344 Z M 2.730469 7.902344 "/>
<path style=" stroke:none;fill-rule:nonzero;fill:rgb(100%,100%,100%);fill-opacity:1;" d="M 3.636719 2.445312 C 3.132812 2.445312 2.730469 2.851562 2.730469 3.355469 L 2.730469 3.582031 C 2.730469 3.078125 3.132812 2.671875 3.636719 2.671875 L 8.1875 2.671875 L 8.1875 2.445312 Z M 3.636719 2.445312 "/>
<path style=" stroke:none;fill-rule:nonzero;fill:rgb(100%,100%,100%);fill-opacity:0.588235;" d="M 13.644531 2.445312 L 13.644531 2.671875 L 18.191406 2.671875 C 18.695312 2.671875 19.101562 3.078125 19.101562 3.582031 L 19.101562 3.355469 C 19.101562 2.851562 18.695312 2.445312 18.191406 2.445312 Z M 13.644531 2.445312 "/>
<path style=" stroke:none;fill-rule:nonzero;fill:rgb(100%,100%,100%);fill-opacity:0.980645;" d="M 2.730469 13.359375 L 2.730469 13.589844 L 8.1875 13.589844 L 8.1875 13.359375 Z M 2.730469 13.359375 "/>
<path style=" stroke:none;fill-rule:nonzero;fill:rgb(100%,100%,100%);fill-opacity:0.392157;" d="M 13.644531 13.359375 L 13.644531 13.589844 L 19.101562 13.589844 L 19.101562 13.359375 Z M 13.644531 13.359375 "/>
<path style=" stroke:none;fill-rule:nonzero;fill:rgb(100%,100%,100%);fill-opacity:0.392157;" d="M 13.644531 7.902344 L 13.644531 8.128906 L 19.101562 8.128906 L 19.101562 7.902344 Z M 13.644531 7.902344 "/>
<path style=" stroke:none;fill-rule:nonzero;fill:rgb(100%,100%,100%);fill-opacity:0.784314;" d="M 8.1875 7.902344 L 8.1875 8.128906 L 13.644531 8.128906 L 13.644531 7.902344 Z M 8.1875 7.902344 "/>
<path style=" stroke:none;fill-rule:nonzero;fill:rgb(100%,100%,100%);fill-opacity:0.392157;" d="M 8.1875 13.359375 L 8.1875 13.589844 L 13.644531 13.589844 L 13.644531 13.359375 Z M 8.1875 13.359375 "/>
<path style=" stroke:none;fill-rule:nonzero;fill:rgb(100%,100%,100%);fill-opacity:1;" d="M 8.1875 2.445312 L 8.1875 2.671875 L 13.644531 2.671875 L 13.644531 2.445312 Z M 8.1875 2.445312 "/>
<path style=" stroke:none;fill-rule:nonzero;fill:rgb(0%,0%,0%);fill-opacity:0.235294;" d="M 2.730469 13.132812 L 2.730469 13.359375 L 8.1875 13.359375 L 8.1875 13.132812 Z M 2.730469 13.132812 "/>
<path style=" stroke:none;fill-rule:nonzero;fill:rgb(0%,0%,0%);fill-opacity:0.235294;" d="M 2.730469 7.675781 L 2.730469 7.902344 L 8.1875 7.902344 L 8.1875 7.675781 Z M 2.730469 7.675781 "/>
<path style=" stroke:none;fill-rule:nonzero;fill:rgb(0%,0%,0%);fill-opacity:0.235294;" d="M 13.644531 7.675781 L 13.644531 7.902344 L 19.101562 7.902344 L 19.101562 7.675781 Z M 13.644531 7.675781 "/>
<path style=" stroke:none;fill-rule:nonzero;fill:rgb(0%,0%,0%);fill-opacity:0.235294;" d="M 2.730469 17.679688 L 2.730469 17.910156 C 2.730469 18.414062 3.132812 18.820312 3.636719 18.820312 L 8.1875 18.820312 L 8.1875 18.589844 L 3.636719 18.589844 C 3.132812 18.589844 2.730469 18.183594 2.730469 17.679688 Z M 2.730469 17.679688 "/>
<path style=" stroke:none;fill-rule:nonzero;fill:rgb(0%,0%,0%);fill-opacity:0.235294;" d="M 19.101562 17.679688 C 19.101562 18.183594 18.695312 18.589844 18.191406 18.589844 L 13.644531 18.589844 L 13.644531 18.820312 L 18.191406 18.820312 C 18.695312 18.820312 19.101562 18.414062 19.101562 17.910156 Z M 19.101562 17.679688 "/>
<path style=" stroke:none;fill-rule:nonzero;fill:rgb(0%,0%,0%);fill-opacity:0.235294;" d="M 13.644531 13.132812 L 13.644531 13.359375 L 19.101562 13.359375 L 19.101562 13.132812 Z M 13.644531 13.132812 "/>
<path style=" stroke:none;fill-rule:nonzero;fill:rgb(0%,0%,0%);fill-opacity:0.235294;" d="M 8.1875 13.132812 L 8.1875 13.359375 L 13.644531 13.359375 L 13.644531 13.132812 Z M 8.1875 13.132812 "/>
<path style=" stroke:none;fill-rule:nonzero;fill:rgb(0%,0%,0%);fill-opacity:0.235294;" d="M 8.1875 18.589844 L 8.1875 18.820312 L 13.644531 18.820312 L 13.644531 18.589844 Z M 8.1875 18.589844 "/>
<path style=" stroke:none;fill-rule:nonzero;fill:rgb(0%,0%,0%);fill-opacity:0.235294;" d="M 8.1875 7.675781 L 8.1875 7.902344 L 13.644531 7.902344 L 13.644531 7.675781 Z M 8.1875 7.675781 "/>
<path style=" stroke:none;fill-rule:nonzero;fill:rgb(12.941177%,12.941177%,12.941177%);fill-opacity:1;" d="M 3.636719 2.382812 C 3.101562 2.382812 2.664062 2.816406 2.664062 3.355469 L 2.664062 17.910156 C 2.664062 18.449219 3.101562 18.882812 3.636719 18.882812 L 18.191406 18.882812 C 18.730469 18.882812 19.164062 18.449219 19.164062 17.910156 L 19.164062 3.355469 C 19.164062 2.816406 18.730469 2.382812 18.191406 2.382812 Z M 8.25 2.511719 L 13.578125 2.511719 L 13.578125 7.839844 L 8.25 7.839844 Z M 3.636719 2.511719 L 8.121094 2.511719 L 8.121094 7.839844 L 2.792969 7.839844 L 2.792969 3.355469 C 2.792969 2.886719 3.167969 2.511719 3.636719 2.511719 Z M 13.707031 2.511719 L 18.191406 2.511719 C 18.660156 2.511719 19.035156 2.886719 19.035156 3.355469 L 19.035156 7.839844 L 13.707031 7.839844 Z M 8.25 7.96875 L 13.578125 7.96875 L 13.578125 13.296875 L 8.25 13.296875 Z M 2.792969 7.96875 L 8.121094 7.96875 L 8.121094 13.296875 L 2.792969 13.296875 Z M 13.707031 7.96875 L 19.035156 7.96875 L 19.035156 13.296875 L 13.707031 13.296875 Z M 8.25 13.425781 L 13.578125 13.425781 L 13.578125 18.753906 L 8.25 18.753906 Z M 13.707031 13.425781 L 19.035156 13.425781 L 19.035156 17.910156 C 19.035156 18.378906 18.660156 18.753906 18.191406 18.753906 L 13.707031 18.753906 Z M 2.792969 13.425781 L 8.121094 13.425781 L 8.121094 18.753906 L 3.636719 18.753906 C 3.167969 18.753906 2.792969 18.378906 2.792969 17.910156 Z M 2.792969 13.425781 "/>
</g>
</svg>
